X: 1
T: Muriel's Measure   (G)
C: Dance and music: Colin Hume
R: march
Z: 2013 John Chambers <jc:trillian.mit.edu>
M: 2/2
L: 1/8
K: G
"D"|:\
"G"Bc d4 D2 | "C"E4 "G"D4 | "Am"AB c4 E2 | "D7"F6 E2 |\
"G"D2B2 G3F | "Am"E2c2 A3G | "D7"F2e2 d2A2 |1 "G"c4 B4 :|2 "G"B6 "G7"d2 |
"E"|:\
"C"e3f g2a2 | "D7"f3e d4 | "G"b2ab "C"c'2e2 | "D"a6 gf |\
"C"e2g2 "G/b"d2g2 | "Am"c3B "D"A2GF | "C"E2G2 "G"D2G2 | "D7"A3F "G"G4 :|
